src/topics/icons/turret.svg

<svg height="373" preserveAspectRatio="xMidYMid" viewBox="0 0 256 373" width="256" xmlns="http://www.w3.org/2000/svg"><path d="m213.527273 302.545455-18.036364-163.49091 48.872727-34.90909v-104.145455h-46.545454v40.7272727h-34.909091v-40.7272727h-69.8181819v40.7272727h-34.9090909v-40.7272727h-46.5454546v104.145455l48.8727273 34.90909-18.0363636 163.49091h-42.4727273v69.818181h256v-69.818181z" fill="#05bed5"/></svg>

<?xml version="1.0" encoding="UTF-8" standalone="no"?>
<svg width="256px" height="373px" viewBox="0 0 256 373" version="1.1" xmlns="http://www.w3.org/2000/svg" xmlns:xlink="http://www.w3.org/1999/xlink" preserveAspectRatio="xMidYMid">
    <g>
        <path d="M213.527273,302.545455 L195.490909,139.054545 L244.363636,104.145455 L244.363636,0 L197.818182,0 L197.818182,40.7272727 L162.909091,40.7272727 L162.909091,0 L93.0909091,0 L93.0909091,40.7272727 L58.1818182,40.7272727 L58.1818182,0 L11.6363636,0 L11.6363636,104.145455 L60.5090909,139.054545 L42.4727273,302.545455 L0,302.545455 L0,372.363636 L256,372.363636 L256,302.545455 L213.527273,302.545455 Z" fill="#05BED5"></path>
    </g>
</svg>
